X: 30097
T: Oklahoma Rooster
R: reel
M: 4/4
K: Dmajor
|z6(3dcB|:A2Ac dcde|fefg abaf|e^gaf ecAc|dfed BAFG|
A2Ac dcde|fefg abaf|e^gaf ecAc|1 d2 de d2(3dcB:|2 d2 de fg(3agf||
|:[_e2b2][_e4b4] [_e2b2]-|[_e2b2] Bc dcB2|[c2a2][c4a4][c2a2]-|[c2a2] AB cBA2|
[d2g2][d4g4] gg|fefg abaf|e^gaf ecAc|1 d2e2 fg(3agf:|2 d3d d4||

